X:1
T:J. S. Bach
T:From Clavier-Büchlein vor Wilhelm Friedemann Bach
T:BWV 930 Little Prelude in G minor
%%score { ( 1 4 5 6 ) | ( 2 3 7 ) }
L:1/8
Q:1/4=184
M:3/4
K:Bb
V:1 treble nm="Harp"
V:4 treble 
V:5 treble 
V:6 treble 
V:2 bass 
V:3 bass 
V:7 bass 
V:1
"^Presto" z D GB GD | d2 z4 | z d BG gB | Ag f=e f_A | GB GE eG | Fe dc dF | EG EC cE | %7
 Dc A^F D=E | ^Fc AF D=E | ^Fc AF Dc | c/4B/4A/B/c/ B/4c/4d/4c/4d/4c/4d/4c/4 d/4c/4d/4c/4 d | d6- | %12
 d2 c3 c | B6 | A3 d2 ^c | d6 | z D GB GD | d2 z4 | z d BG gB | Ag f=e f_A | GB GE eG | Fe dc dF | %22
 EG EC cE | Dc A^F D=E | ^Fc AF D=E | ^Fc AF Dc | %26
 c/4B/4A/B/c/ B/4c/4d/4c/4d/4c/4d/4c/4 d/4c/4d/4c/4 d | d6- | d2 c3 c | B6 | A3 d2 ^c | d6 | %32
 z A ^FD FA | c2 D^F Ac | Bd BG Bd | f2 G=B df | eg ec _ac | B_a gf gB | _Ac AF fA | Gf ed eG | %40
 Fe df _ac | =BG _AF dF | EG cE D=B | c/4B/4c3/2 z4 | z C =EG EC | %45
 B/4A/4B3/2 c/4B/4c/4B/4c/4B/4c/4B/4 c/4B/4c/4B/4 A/B/ | AF Ac AF | %47
 e/4d/4e3/2 f/4e/4f/4e/4f/4e/4f/4e/4 f/4e/4f/4e/4 d/e/ | dB df ba | a/4g/4a/4g/4^f gb ag | %50
 ^fa fd ac | Bd BG eG | ^FA FD AC | B,D B,G, E z | z D Ac B2 | %55
 z A B/4A/4B/4A/4B/4A/4B/4A/4 B/4A/4B/4A/4 G | G4 z ^F | G6 | z A ^FD FA | c2 D^F Ac | Bd BG Bd | %61
 f2 G=B df | eg ec _ac | B_a gf gB | _Ac AF fA | Gf ed eG | Fe df _ac | =BG _AF dF | EG cE D=B | %69
 c/4B/4c3/2 z4 | z C =EG EC | B/4A/4B3/2 c/4B/4c/4B/4c/4B/4c/4B/4 c/4B/4c/4B/4 A/B/ | AF Ac AF | %73
 e/4d/4e3/2 f/4e/4f/4e/4f/4e/4f/4e/4 f/4e/4f/4e/4 d/e/ | dB df ba | a/4g/4a/4g/4^f gb ag | %76
 ^fa fd ac | Bd BG eG | ^FA FD AC | B,D B,G, E z | z D Ac B2 | %81
 z A B/4A/4B/4A/4B/4A/4B/4A/4 B/4A/4B/4A/4 G | G4 z ^F | G6 |] %84
V:2
 z2 z4 | z G,, B,,D, B,,G,, | G,/4^F,/4G,3/2 G,,B,, D,G, | D,2 D2 D,2 | E,2 E,,G,, B,,E, | %5
 B,,2 B,2 B,,2 | C,2 C,,E,, G,,C, | ^F,,2 ^F,2 z =E, | D,2 D,,2 z C, | B,,2 B,2 z A, | %10
 G,F, z ^F, G,A, | B,4- B,B, | %12
 B,/4A,/4B,/4A,/4B,/4A,/4B,/4A,/4 B,/4A,/4B,/4A,/4B,/4A,/4B,/4A,/4 B,/4A,/4B,/4A,/4B,/4A,/4B,/4A,/4 | %13
 G,4 B,G, | z2 A,2 B,2 | A,4 z2 | z2 z4 | z G,, B,,D, B,,G,, | G,/4^F,/4G,3/2 G,,B,, D,G, | %19
 D,2 D2 D,2 | E,2 E,,G,, B,,E, | B,,2 B,2 B,,2 | C,2 C,,E,, G,,C, | ^F,,2 ^F,2 z =E, | %24
 D,2 D,,2 z C, | B,,2 B,2 z A, | G,F, z ^F, G,A, | B,4- B,B, | %28
 B,/4A,/4B,/4A,/4B,/4A,/4B,/4A,/4 B,/4A,/4B,/4A,/4B,/4A,/4B,/4A,/4 B,/4A,/4B,/4A,/4B,/4A,/4B,/4A,/4 | %29
 G,4 B,G, | z2 A,2 B,2 | A,4 z2 | D,/4C,/4D,3/2 D,,2 z2 | z D, ^F,A, F,D, | G,/4F,/4G,3/2 G,,2 z2 | %35
 z G, =B,D B,G, | C/4=B,/4C3/2 C,2 C2 | D,2 B,2 =E,2 | F,G, F,E, D,C, | =B,,2 G,2 C,2 | %40
 _A,2 z2 F,2 | G,/4F,/4G,3/2 D,2 =B,,2 | C,/4=B,,/4C,3/2 E,,2 G,,2 | C,,E,, G,,C, G,,C,, | %44
 C,,2 z4 | z C, =E,G, E,C, | F,/4=E,/4F,3/2 F,,2 z2 | z F, A,C A,F, | B,2 B,,2 D,2 | E,2 D,2 C,2 | %50
 z2 =E,2 ^F,2 | G,2 A,2 B,2 | A,2 G,2 ^F,2 | G,D, B,,G,, E,G,, | %54
 G,,/4^F,,/4G,,/4F,,/4G,,/4F,,/4G,,/4F,,/4 G,,/4F,,/4G,,/4F,,/4G,,/4F,,/4G,,/4F,,/4 G,,2 | %55
 C,2 D,/4C,/4D,3/2 D,,2 | z2 C,2 E,2 | G,/4^F,/4G,3/2- G,4 | D,/4C,/4D,3/2 D,,2 z2 | %59
 z D, ^F,A, F,D, | G,/4F,/4G,3/2 G,,2 z2 | z G, =B,D B,G, | C/4=B,/4C3/2 C,2 C2 | D,2 B,2 =E,2 | %64
 F,G, F,E, D,C, | =B,,2 G,2 C,2 | _A,2 z2 F,2 | G,/4F,/4G,3/2 D,2 =B,,2 | %68
 C,/4=B,,/4C,3/2 E,,2 G,,2 | C,,E,, G,,C, G,,C,, | C,,2 z4 | z C, =E,G, E,C, | %72
 F,/4=E,/4F,3/2 F,,2 z2 | z F, A,C A,F, | B,2 B,,2 D,2 | E,2 D,2 C,2 | z2 =E,2 ^F,2 | G,2 A,2 B,2 | %78
 A,2 G,2 ^F,2 | G,D, B,,G,, E,G,, | %80
 G,,/4^F,,/4G,,/4F,,/4G,,/4F,,/4G,,/4F,,/4 G,,/4F,,/4G,,/4F,,/4G,,/4F,,/4G,,/4F,,/4 G,,2 | %81
 C,2 D,/4C,/4D,3/2 D,,2 | z2 C,2 E,2 | G,/4^F,/4G,3/2- G,4 |] %84
V:3
 x6 | x6 | x6 | x6 | x6 | x6 | x6 | x6 | x6 | x6 | z2 E,4 | D,6- | D,6- | D,6 | D,6- | D,4 D,,2 | %16
 x6 | x6 | x6 | x6 | x6 | x6 | x6 | x6 | x6 | x6 | z2 E,4 | D,6- | D,6- | D,6 | D,6- | D,4 D,,2 | %32
 x6 | x6 | x6 | x6 | x6 | x6 | x6 | x6 | x6 | x6 | x6 | x6 | x6 | x6 | x6 | x6 | x6 | x6 | D,6- | %51
 D,6- | D,6 | x6 | x6 | x6 | G,,6- | G,,6 | x6 | x6 | x6 | x6 | x6 | x6 | x6 | x6 | x6 | x6 | x6 | %69
 x6 | x6 | x6 | x6 | x6 | x6 | x6 | D,6- | D,6- | D,6 | x6 | x6 | x6 | G,,6- | G,,6 |] %84
V:4
 x6 | x6 | x6 | x6 | x6 | x6 | x6 | x6 | x6 | x6 | x6 | z A B^F G2- | GG- G=E ^F2 | z ^F G4- | %14
 GG G/4^F/4G/4F/4G/4F/4G/4F/4 G2 | z A3- A2 | x6 | x6 | x6 | x6 | x6 | x6 | x6 | x6 | x6 | x6 | %26
 x6 | z A B^F G2- | GG- G=E ^F2 | z ^F G4- | GG G/4^F/4G/4F/4G/4F/4G/4F/4 G2 | z A3- A2 | x6 | x6 | %34
 x6 | x6 | x6 | x6 | x6 | x6 | x6 | x6 | x6 | x6 | x6 | x6 | x6 | x6 | x6 | x6 | x6 | x6 | x6 | %53
 x6 | z D3 D2 | z2 ^F4 | z D EC A,2 | =B,6 | x6 | x6 | x6 | x6 | x6 | x6 | x6 | x6 | x6 | x6 | x6 | %69
 x6 | x6 | x6 | x6 | x6 | x6 | x6 | x6 | x6 | x6 | x6 | z D3 D2 | z2 ^F4 | z D EC A,2 | =B,6 |] %84
V:5
 x6 | x6 | x6 | x6 | x6 | x6 | x6 | x6 | x6 | x6 | x6 | x6 | x6 | z2 z D3 | z4 =E2 | z2 ^F2- F2 | %16
 x6 | x6 | x6 | x6 | x6 | x6 | x6 | x6 | x6 | x6 | x6 | x6 | x6 | z2 z D3 | z4 =E2 | z2 ^F2- F2 | %32
 x6 | x6 | x6 | x6 | x6 | x6 | x6 | x6 | x6 | x6 | x6 | x6 | x6 | x6 | x6 | x6 | x6 | x6 | x6 | %51
 x6 | x6 | x6 | z2 A2 G/4^F/4G3/2 | x6 | z D E3 z | D6 | x6 | x6 | x6 | x6 | x6 | x6 | x6 | x6 | %66
 x6 | x6 | x6 | x6 | x6 | x6 | x6 | x6 | x6 | x6 | x6 | x6 | x6 | x6 | z2 A2 G/4^F/4G3/2 | x6 | %82
 z D E3 z | D6 |] %84
V:6
 x6 | x6 | x6 | x6 | x6 | x6 | x6 | x6 | x6 | x6 | x6 | x6 | x6 | x6 | x6 | x6 | x6 | x6 | x6 | %19
 x6 | x6 | x6 | x6 | x6 | x6 | x6 | x6 | x6 | x6 | x6 | x6 | x6 | x6 | x6 | x6 | x6 | x6 | x6 | %38
 x6 | x6 | x6 | x6 | x6 | x6 | x6 | x6 | x6 | x6 | x6 | x6 | x6 | x6 | x6 | x6 | x6 | x6 | %56
 z2 z C3 | x6 | x6 | x6 | x6 | x6 | x6 | x6 | x6 | x6 | x6 | x6 | x6 | x6 | x6 | x6 | x6 | x6 | %74
 x6 | x6 | x6 | x6 | x6 | x6 | x6 | x6 | z2 z C3 | x6 |] %84
V:7
 x6 | x6 | x6 | x6 | x6 | x6 | x6 | x6 | x6 | x6 | x6 | x6 | x6 | x6 | x6 | x6 | x6 | x6 | x6 | %19
 x6 | x6 | x6 | x6 | x6 | x6 | x6 | x6 | x6 | x6 | x6 | x6 | x6 | x6 | x6 | x6 | x6 | x6 | x6 | %38
 x6 | x6 | x6 | x6 | x6 | x6 | x6 | x6 | x6 | x6 | x6 | x6 | x6 | x6 | x6 | x6 | x6 | x6 | z2 C,4 | %57
 D,6 | x6 | x6 | x6 | x6 | x6 | x6 | x6 | x6 | x6 | x6 | x6 | x6 | x6 | x6 | x6 | x6 | x6 | x6 | %76
 x6 | x6 | x6 | x6 | x6 | x6 | z2 C,4 | D,6 |] %84

